!!!COM: Hindemith, Paul
!!!OTL: Sonata for Alto Saxophone and Piano
!!!OMV: IV: Lebhaft (Lively)
!!!example: 650
!!!work: Hin-80
**kern	**kern
*part1	*part1
*staff2	*staff1
*I"Piano	*
*I'Pno.	*
*clefF4	*clefG2
*k[]	*k[]
*C:	*C:
*M9/16	*M9/16
*MM121	*MM121
=31	=31
8qFF-X/	.
*	*^
(4.F-X	8.ryy	[8.d-X
.	(16d-XLL	4.d-_
.	16g-X	.
.	16b-XJJ	.
[8.E-X)	16anLL	.
.	16a-X	.
.	16g-XJJ	.
=32	=32	=32
8.E-]	8.f)	8.dn
[8.E-X 8.cn	8g-XL	8.ryy
.	(16g-Jk	.
8.E-] 8.c-X	8a-XL)	8.ryy
.	(16a-Jk	.
=33	=33	=33
!	!LO:TX:t=cresc.	!
[8.D-X 8.B-X	8b-XL)	8.ryy
.	(16b-Jk	.
8.D-] 8.G-X	8cc-XL)	8.ryy
.	(16cc-Jk	.
8.C-X 8.F-X	8dd-XL)	8.ryy
.	(16dd-Jk	.
*	*v	*v
=34	=34
[8.BB-X [8.E	16ee-XLL
.	16b-X
.	16aa-XJJ
8.BB-_ 8.E_ 8.Fn	8ffL
.	16ccJk
8.BB-] 8.E] 8.A-X	8bb-XL)
.	(16ggJk
=35	=35
!!linebreak:original
[8.AA-X [8.D-X	16ff#XLL
.	16bbn
.	16eenJJ
8.AA-_ 8.D-_ 8.A-X	16ee-XLL
.	16b-X
.	16aa-XJJ
8.AA-] 8.D-] 8.B-X	8ff#L
.	16ccJk
=36	=36
[8.GG [8.C	8bb-XL)
.	(16ggJk
8.GG_ 8.C_ 8.A-X	16ff#XLL
.	16bbn
.	16eenJJ
8.GG] 8.C] 8.G	16ee-XLL
.	16b-X
.	16aa-XJJ
=37	=37
8.GG 8.C 8.c	8ff#XL
.	16ccJk
8.FF	8bb-XL)
.	(16ggJk
8.C-X	16ff#LL
.	16bbn
.	16eenJJ
=38	=38
[8.EE-X [8.BB-X	16ee-XLL
.	16b-X
.	16aa-XJJ
8.EE-_ 8.BB-_ 8.D-X	8ff#XL
.	16ccJk
8.EE-] 8.BB-] 8.E-X	8bb-XL)
.	[16ggJk
=	=
*-	*-
!!!system-decoration: {(s1,s2)}
!!!CDT: 1895/11/16-1963/12/28
!!!CBL: Hanau, Germany
!!!CDL: Frankfurt, Germany
!!!CNT: German
!!!AGN: Instrumental; Keyboard
!!!MCN:
!!!MDT:
!!!MGN:
!!!MLC:
!!!MPD: unknown
!!!MPN: unknown
!!!ODT: 1943
!!!PDT: 1956
!!!excerpt-start-measure: 31
!!!excerpt-end-measure: 35
!!!excerpt-start-time: 0:29
!!!excerpt-end-time: 0:34
!!!EEV: 2020/01/22
!!!ONB: Converted from MusicXML on 2020/01/22
